assets/svgs/virtualboy.svg

<?xml version="1.0" encoding="UTF-8" standalone="no"?>
<svg
   xmlns:dc="http://purl.org/dc/elements/1.1/"
   xmlns:cc="http://creativecommons.org/ns#"
   xmlns:rdf="http://www.w3.org/1999/02/22-rdf-syntax-ns#"
   xmlns:svg="http://www.w3.org/2000/svg"
   xmlns="http://www.w3.org/2000/svg"
   xmlns:sodipodi="http://sodipodi.sourceforge.net/DTD/sodipodi-0.dtd"
   xmlns:inkscape="http://www.inkscape.org/namespaces/inkscape"
   version="1.1"
   id="svg14"
   sodipodi:docname="virtualboy.svg"
   width="264"
   height="67.999962"
   inkscape:version="0.92.5 (2060ec1f9f, 2020-04-08)">
  <metadata
     id="metadata20">
    <rdf:RDF>
      <cc:Work
         rdf:about="">
        <dc:format>image/svg+xml</dc:format>
        <dc:type
           rdf:resource="http://purl.org/dc/dcmitype/StillImage" />
      </cc:Work>
    </rdf:RDF>
  </metadata>
  <defs
     id="defs18" />
  <sodipodi:namedview
     pagecolor="#ffffff"
     bordercolor="#666666"
     borderopacity="1"
     objecttolerance="10"
     gridtolerance="10"
     guidetolerance="10"
     inkscape:pageopacity="0"
     inkscape:pageshadow="2"
     inkscape:window-width="640"
     inkscape:window-height="480"
     id="namedview16"
     showgrid="false"
     inkscape:zoom="2.36"
     inkscape:cx="50"
     inkscape:cy="17.999965"
     inkscape:window-x="72"
     inkscape:window-y="27"
     inkscape:window-maximized="0"
     inkscape:current-layer="svg14" />
  <g
     transform="scale(0.44,0.439174)"
     id="g12">
    <path
       id="path2952"
       d="m 0,0.018 32.286,154.8 32.118,-154.8 H 47.022 L 32.286,87.024 17.385,0.018 Z"
       style="fill:#ffffff;fill-opacity:1"
       inkscape:connector-curvature="0" />
    <path
       id="path3726"
       d="m 71.523,0.018 h 17.385 v 154.8 H 71.523 Z"
       style="fill:#ffffff;fill-opacity:1"
       inkscape:connector-curvature="0" />
    <path
       id="path3728"
       d="m 104.46,0 v 154.827 h 17.391 V 74.832 l 24.183,79.992 h 16.032 l -19.347,-73.2 c 10.749,-6.447 13.914,-14.889 13.914,-14.889 V 17.553 C 149.511,1.743 137.229,0 137.229,0 Z m 17.391,15.759 h 17.391 v 53.802 h -17.391 z"
       style="fill:#ffffff;fill-opacity:1"
       inkscape:connector-curvature="0" />
    <path
       id="path3733"
       d="m 162.087,0.018 h 51.987 V 15.744 H 196.689 V 154.818 H 179.304 V 15.747 h -17.217 z"
       style="fill:#ffffff;fill-opacity:1"
       inkscape:connector-curvature="0" />
    <path
       id="path3735"
       d="m 310.26,0 -33.585,154.662 v 0.162 h 17.226 l 3.642,-20.868 h 24.291 l 3.477,20.868 h 17.391 z m 0,66.732 7.935,53.313 H 301.02 Z"
       style="fill:#ffffff;fill-opacity:1"
       inkscape:connector-curvature="0" />
    <path
       id="path2882"
       d="m 349.668,0.018 h 17.388 v 139.071 h 25.995 v 15.729 h -43.38 z"
       style="fill:#ffffff;fill-opacity:1"
       inkscape:connector-curvature="0" />
    <path
       id="path3660"
       d="m 535.599,0.018 h 15.894 L 567.717,66.741 582.453,0.018 H 600 l -24.336,91.059 v 63.741 H 558.279 V 91.08 L 535.599,0.018 Z"
       style="fill:#ffffff;fill-opacity:1"
       inkscape:connector-curvature="0" />
    <path
       id="path3662"
       d="m 504.402,0.018 c -19.761,0 -26.112,17.538 -26.112,17.538 0.162,0.246 0,116.406 0,119.718 2.619,18.816 26.112,17.544 26.112,17.544 v 0 c 26.064,0 26.055,-17.544 26.055,-17.544 V 17.553 C 523.719,-0.849 504.402,0.018 504.402,0.018 Z m -8.724,17.535 h 17.394 v 121.512 h -17.394 z"
       style="fill:#ffffff;fill-opacity:1"
       inkscape:connector-curvature="0" />
    <path
       id="path3667"
       d="m 220.86,0.018 h 17.553 v 137.253 h 17.55 V 0.018 h 17.217 v 137.253 c 0,0 -5.628,17.547 -25.332,17.547 -19.701,0 -26.988,-17.547 -26.988,-17.547 z"
       style="fill:#ffffff;fill-opacity:1"
       inkscape:connector-curvature="0" />
    <path
       id="path3669"
       d="m 412.263,0 v 154.827 h 34.944 c 16.218,-4.224 17.223,-15.762 17.223,-15.762 0,0 -0.024,-41.352 -0.024,-52.041 -1.218,-6.75 -6.765,-6.975 -6.765,-6.975 0,0 -0.024,-1.881 0,-3.369 6.129,-0.471 6.792,-7.122 6.792,-7.122 0,0 -0.027,-41.313 0,-52.008 C 461.778,4.926 447.207,0 447.207,0 Z m 17.442,17.661 h 17.499 v 51.897 h -17.499 z m -0.051,67.605 h 17.55 v 53.799 h -17.55 z"
       style="fill:#ffffff;fill-opacity:1"
       inkscape:connector-curvature="0" />
  </g>
</svg>

<?xml version="1.0" encoding="utf-8"?>
<svg version="1.1" viewBox="0 0 264 68" xmlns="http://www.w3.org/2000/svg">
  <g transform="matrix(0.44, 0, 0, 0.439174, 0, 0)">
    <path id="path2952" d="M 0 0.018 L 32.286 154.818 L 64.404 0.018 L 47.022 0.018 L 32.286 87.024 L 17.385 0.018 L 0 0.018 L 0 0.018 Z" style="fill-opacity: 1; fill: rgb(255, 255, 255);"/>
    <path id="path3726" d="M 71.523 0.018 L 88.908 0.018 L 88.908 154.818 L 71.523 154.818 L 71.523 0.018 L 71.523 0.018 Z" style="fill-opacity: 1; fill: rgb(255, 255, 255);"/>
    <path id="path3728" d="M 104.46 0 L 104.46 154.827 L 121.851 154.827 L 121.851 74.832 L 146.034 154.824 L 162.066 154.824 L 142.719 81.624 C 153.468 75.177 156.633 66.735 156.633 66.735 L 156.633 17.553 C 149.511 1.743 137.229 0 137.229 0 L 104.46 0 Z M 121.851 15.759 L 139.242 15.759 L 139.242 69.561 L 121.851 69.561 L 121.851 15.759 Z" style="fill-opacity: 1; fill: rgb(255, 255, 255);"/>
    <path id="path3733" d="M 162.087 0.018 L 214.074 0.018 L 214.074 15.744 L 196.689 15.744 L 196.689 154.818 L 179.304 154.818 L 179.304 15.747 L 162.087 15.747 L 162.087 0.018 L 162.087 0.018 Z" style="fill-opacity: 1; fill: rgb(255, 255, 255);"/>
    <path id="path3735" d="M 310.26 0 L 276.675 154.662 L 276.675 154.824 L 293.901 154.824 L 297.543 133.956 L 321.834 133.956 L 325.311 154.824 L 342.702 154.824 L 310.26 0 L 310.26 0 Z M 310.26 66.732 L 318.195 120.045 L 301.02 120.045 L 310.26 66.732 Z" style="fill-opacity: 1; fill: rgb(255, 255, 255);"/>
    <path id="path2882" d="M 349.668 0.018 L 367.056 0.018 L 367.056 139.089 L 393.051 139.089 L 393.051 154.818 L 349.671 154.818 L 349.668 0.018 L 349.668 0.018 Z" style="fill-opacity: 1; fill: rgb(255, 255, 255);"/>
    <path id="path3660" d="M 535.599 0.018 L 551.493 0.018 L 567.717 66.741 L 582.453 0.018 L 600 0.018 L 575.664 91.077 L 575.664 154.818 L 558.279 154.818 L 558.279 91.08 L 535.599 0.018 L 535.599 0.018 L 535.599 0.018 Z" style="fill-opacity: 1; fill: rgb(255, 255, 255);"/>
    <path id="path3662" d="M 504.402 0.018 C 484.641 0.018 478.29 17.556 478.29 17.556 C 478.452 17.802 478.29 133.962 478.29 137.274 C 480.909 156.09 504.402 154.818 504.402 154.818 L 504.402 154.818 C 530.466 154.818 530.457 137.274 530.457 137.274 L 530.457 17.553 C 523.719 -0.849 504.402 0.018 504.402 0.018 L 504.402 0.018 Z M 495.678 17.553 L 513.072 17.553 L 513.072 139.065 L 495.678 139.065 L 495.678 17.553 Z" style="fill-opacity: 1; fill: rgb(255, 255, 255);"/>
    <path id="path3667" d="M 220.86 0.018 L 238.413 0.018 L 238.413 137.271 L 255.963 137.271 L 255.963 0.018 L 273.18 0.018 L 273.18 137.271 C 273.18 137.271 267.552 154.818 247.848 154.818 C 228.147 154.818 220.86 137.271 220.86 137.271 L 220.86 0.018 L 220.86 0.018 Z" style="fill-opacity: 1; fill: rgb(255, 255, 255);"/>
    <path id="path3669" d="M 412.263 0 L 412.263 154.827 L 447.207 154.827 C 463.425 150.603 464.43 139.065 464.43 139.065 C 464.43 139.065 464.406 97.713 464.406 87.024 C 463.188 80.274 457.641 80.049 457.641 80.049 C 457.641 80.049 457.617 78.168 457.641 76.68 C 463.77 76.209 464.433 69.558 464.433 69.558 C 464.433 69.558 464.406 28.245 464.433 17.55 C 461.778 4.926 447.207 0 447.207 0 L 412.263 0 Z M 429.705 17.661 L 447.204 17.661 L 447.204 69.558 L 429.705 69.558 L 429.705 17.661 Z M 429.654 85.266 L 447.204 85.266 L 447.204 139.065 L 429.654 139.065 L 429.654 85.266 L 429.654 85.266 Z" style="fill-opacity: 1; fill: rgb(255, 255, 255);"/>
  </g>
</svg>
